Mindful/img/marketing.svg

<svg width="162" height="150" viewBox="0 0 162 150" fill="none" xmlns="http://www.w3.org/2000/svg">
<path d="M89.3388 51.1963C92.9068 58.9746 92.3586 67.9248 87.6441 75.1494C87.5564 75.2842 87.4687 75.416 87.381 75.5479L76.8994 72.2373V66.0264C79.9883 63.3876 82.1184 59.9122 82.9922 56.0859L84.6838 48.7061H85.7552C86.5244 48.7072 87.2774 48.4996 87.9229 48.1084L89.3388 51.1963Z" fill="#6D7486"/>
<path d="M87.2933 31.0107V41.499C86.806 41.309 86.2831 41.2114 85.7552 41.2119H84.6839C84.6859 38.7884 83.6817 36.4588 81.883 34.7143C80.0843 32.9698 77.6315 31.9465 75.0418 31.8604C74.9134 31.8574 74.785 31.8516 74.6597 31.8486C72.3585 31.7437 70.0911 31.2885 67.9466 30.501L56.6443 26.4053L52.9417 28.8281C51.2595 29.9268 49.5272 30.9639 47.7416 31.9072C45.9807 32.8387 44.516 34.1912 43.4978 35.8262C42.4795 37.4611 41.9441 39.3198 41.9464 41.2119H40.8782C40.2996 41.2111 39.7277 41.328 39.2023 41.5547V31.0107C39.2019 25.0469 41.7348 19.3272 46.2436 15.1098C50.7524 10.8925 56.8678 8.52293 63.2446 8.52246H63.2509C69.6277 8.52293 75.7432 10.8925 80.252 15.1098C84.7608 19.3272 87.2936 25.0469 87.2933 31.0107Z" fill="#6D7486"/>
<path d="M49.712 66.0117V72.2373L39.2085 75.5508C38.9986 75.2607 38.7981 74.9707 38.6133 74.6806C36.64 71.5471 35.4207 68.049 35.0404 64.4298C34.6601 60.8107 35.1278 57.1575 36.4111 53.7246L38.5193 47.9883C39.2039 48.4561 40.0302 48.7076 40.8781 48.7061H41.9463L43.6379 56.0859C44.5091 59.905 46.6324 63.3747 49.712 66.0117Z" fill="#6D7486"/>
<path d="M103.846 80.745L76.9276 72.2372L49.6744 72.2665L22.7626 80.7421C20.8199 81.3529 18.9776 82.2135 17.2884 83.2991C13.1459 85.9127 10.1244 89.8114 8.75753 94.3065C8.40981 95.4919 8.32461 96.7147 8.01135 97.9657V120.996H92.9413L92.9757 121.055L104.427 98.9826L108.917 83.0498C107.338 82.0843 105.634 81.3099 103.846 80.745Z" fill="#5FA8ED"/>
<path d="M91.8011 100.849L76.8995 120.929V81.2637V74.5898L90.3539 89.0977L85.442 95.877L91.8011 100.849Z" fill="#4689D3"/>
<path d="M49.712 120.979V81.2637C53.6786 83.9009 58.424 85.3191 63.2907 85.3217C68.1575 85.3243 72.9046 83.9113 76.8744 81.2783L76.8995 81.2637V121.125H49.712V120.979Z" fill="#5FCDA4"/>
<path d="M49.712 81.2637V120.978L34.7728 100.849L41.1319 95.8769L36.2201 89.0976L49.712 74.6279V81.2637Z" fill="#4689D3"/>
<path d="M24.451 100.895V121.125H8.12415V97.9657C8.23307 96.7276 8.46483 95.5016 8.81644 94.3036C10.1623 89.8122 13.1654 85.9117 17.2931 83.2938L17.3464 83.3641C21.9248 88.2001 24.452 94.4362 24.451 100.895Z" fill="#4689D3"/>
<path d="M111.232 77.0947L107.946 85.5439L108.012 85.5674L136.744 112.438L136.772 112.509L145.813 109.433L111.232 77.0947Z" fill="#C6465C"/>
<path d="M136.744 112.438L136.772 112.509L122.932 117.214C118.548 118.705 114.38 120.702 110.524 123.158C109.325 123.92 108.157 124.726 107.022 125.575L93.9875 113.385L93.9688 113.37C97.7989 108.901 100.82 103.876 102.912 98.4932L107.946 85.5439L108.012 85.5674L136.744 112.438Z" fill="#E75163"/>
<path d="M93.9876 113.385L93.9688 113.37C92.6833 114.871 91.3102 116.305 89.8557 117.665C89.0235 118.445 88.5562 119.503 88.5562 120.605C88.5562 121.707 89.0235 122.764 89.8557 123.545L96.1428 129.425C96.9772 130.203 98.1077 130.641 99.2863 130.641C100.465 130.641 101.595 130.203 102.43 129.425L107.022 125.575L93.9876 113.385Z" fill="#C6465C"/>
<path d="M134.651 87.5302C136.293 89.0631 137.227 91.1356 137.256 93.3046C137.285 95.4737 136.405 97.5672 134.805 99.1376L122.237 87.3866C123.918 85.8914 126.156 85.0695 128.475 85.0963C130.795 85.1232 133.011 85.9965 134.651 87.5302Z" fill="#6D7486"/>
<path d="M107.022 125.575C108.156 124.729 109.324 123.923 110.524 123.158L110.562 123.211L117.519 129.718C118.346 130.49 119.001 131.406 119.448 132.415C119.895 133.424 120.126 134.505 120.126 135.598C120.126 136.69 119.895 137.771 119.448 138.78C119.001 139.789 118.346 140.706 117.519 141.478L103.545 128.408C104.663 127.421 105.822 126.477 107.022 125.575Z" fill="#6D7486"/>
<path d="M49.712 65.4257V81.2636C53.6786 83.9008 58.424 85.319 63.2907 85.3216C68.1575 85.3242 72.9046 83.9112 76.8744 81.2782L76.8995 81.2636V65.4403L49.712 65.4257Z" fill="#EFC597"/>
<path d="M87.2933 41.499C87.9014 41.7352 88.4378 42.108 88.855 42.5843C89.2723 43.0607 89.5575 43.6259 89.6854 44.2299C89.8134 44.834 89.7801 45.4582 89.5885 46.0473C89.3969 46.6364 89.0529 47.1723 88.5871 47.6074C88.3859 47.7965 88.1632 47.9645 87.923 48.1084C87.2775 48.4996 86.5244 48.7072 85.7552 48.7061H84.6839L82.9923 56.0859C82.2716 59.2307 80.7014 62.1502 78.4313 64.566C76.1612 66.9818 73.2671 68.8133 70.025 69.8857C66.783 70.9581 63.3012 71.2356 59.9119 70.6918C56.5226 70.148 53.3388 68.801 50.6643 66.7793C50.3385 66.5332 50.0221 66.2783 49.712 66.0117C46.6325 63.3747 44.5092 59.905 43.638 56.0859L41.9464 48.7061H40.8782C40.0855 48.707 39.3102 48.4879 38.6508 48.0765C37.9913 47.6651 37.4772 47.0799 37.1736 46.3951C36.87 45.7102 36.7906 44.9565 36.9454 44.2293C37.1002 43.5022 37.4823 42.8344 38.0432 42.3105C38.3771 41.9946 38.7699 41.7385 39.2023 41.5547C39.7277 41.328 40.2996 41.2111 40.8782 41.2119H41.9464C41.9441 39.3198 42.4795 37.4611 43.4978 35.8262C44.5161 34.1912 45.9807 32.8387 47.7416 31.9072C49.5272 30.9639 51.2595 29.9268 52.9417 28.8281L56.6444 26.4053L67.9466 30.501C70.0911 31.2885 72.3586 31.7437 74.6597 31.8486C74.785 31.8516 74.9134 31.8574 75.0419 31.8604C77.6316 31.9465 80.0843 32.9698 81.883 34.7143C83.6818 36.4588 84.686 38.7884 84.6839 41.2119H85.7552C86.2832 41.2114 86.806 41.309 87.2933 41.499Z" fill="#FFD8B7"/>
<path d="M60.062 67.1698C59.7362 66.9237 59.4198 66.6688 59.1097 66.4022C56.0302 63.7652 53.9069 60.2955 53.0357 56.4764L52.6504 54.7951C51.782 51.0067 51.3441 47.143 51.3441 43.2685V41.6015C51.3417 39.7094 51.8771 37.8508 52.8954 36.2158C53.9137 34.5808 55.3784 33.2284 57.1393 32.2969C58.9249 31.3535 60.6572 30.3164 62.3394 29.2178L62.6924 28.9866L56.6444 26.7958L52.9417 29.2186C51.2595 30.3173 49.5272 31.3544 47.7416 32.2977C45.9808 33.2292 44.5163 34.5815 43.498 36.2163C42.4797 37.8511 41.9442 39.7096 41.9464 41.6015H40.8782C40.2996 41.6007 39.7277 41.7177 39.2023 41.9443C38.7699 42.1281 38.3771 42.3843 38.0432 42.7002C37.4832 43.2244 37.102 43.8921 36.9477 44.6189C36.7934 45.3458 36.873 46.0991 37.1764 46.7836C37.4798 47.4681 37.9935 48.0531 38.6524 48.4647C39.3113 48.8762 40.0859 49.0958 40.8782 49.0957H41.9464L43.638 56.4756C44.5092 60.2946 46.6325 63.7643 49.712 66.4013C50.0221 66.6679 50.3385 66.9228 50.6643 67.1689C53.0648 68.9819 55.8785 70.2549 58.8883 70.8899C61.8982 71.5248 65.0238 71.5047 68.024 70.831C65.1116 70.1803 62.3914 68.9294 60.062 67.1698Z" fill="#EAC2A4"/>
<path d="M145.581 98.591C145.273 98.5909 144.97 98.5203 144.699 98.3852C144.427 98.2502 144.196 98.0549 144.023 97.8165C143.851 97.5781 143.745 97.3039 143.712 97.0179C143.68 96.7319 143.723 96.4428 143.838 96.1761C144.708 94.1569 144.923 91.9431 144.458 89.8101C143.993 87.6772 142.867 85.7193 141.221 84.18C139.576 82.6407 137.482 81.588 135.201 81.1529C132.921 80.7178 130.554 80.9194 128.395 81.7327C128.165 81.8219 127.919 81.8677 127.67 81.8673C127.422 81.8669 127.176 81.8204 126.947 81.7306C126.718 81.6407 126.51 81.5092 126.335 81.3437C126.161 81.1782 126.023 80.9819 125.93 80.7663C125.837 80.5507 125.791 80.3201 125.794 80.0876C125.797 79.8552 125.85 79.6257 125.948 79.4123C126.047 79.1989 126.19 79.006 126.368 78.8445C126.547 78.6831 126.758 78.5565 126.99 78.472C129.833 77.4008 132.95 77.1351 135.953 77.7079C138.956 78.2808 141.713 79.6669 143.88 81.6938C146.048 83.7207 147.53 86.299 148.142 89.1076C148.755 91.9163 148.471 94.8315 147.326 97.4903C147.185 97.8157 146.944 98.0944 146.633 98.2905C146.322 98.4867 145.956 98.5913 145.581 98.591Z" fill="#D4E1F4"/>
<path d="M152.361 101.016C152.054 101.016 151.751 100.945 151.479 100.81C151.208 100.675 150.976 100.48 150.804 100.241C150.632 100.003 150.525 99.7284 150.493 99.4423C150.46 99.1562 150.504 98.8671 150.619 98.6003C152.016 95.3557 152.363 91.7983 151.615 88.3708C150.868 84.9433 149.059 81.7971 146.414 79.3236C143.77 76.8501 140.405 75.1586 136.741 74.4595C133.076 73.7605 129.272 74.0847 125.803 75.3919C125.573 75.4811 125.327 75.5268 125.079 75.5265C124.83 75.5261 124.584 75.4796 124.355 75.3898C124.126 75.2999 123.918 75.1684 123.743 75.0029C123.569 74.8374 123.431 74.6411 123.338 74.4255C123.245 74.2099 123.199 73.9793 123.202 73.7468C123.205 73.5144 123.258 73.2849 123.356 73.0715C123.455 72.8581 123.598 72.6651 123.776 72.5037C123.955 72.3423 124.167 72.2157 124.398 72.1312C128.551 70.5663 133.105 70.1781 137.492 71.0149C141.879 71.8518 145.907 73.8768 149.073 76.8379C152.239 79.799 154.404 83.5654 155.299 87.6686C156.194 91.7717 155.779 96.0304 154.105 99.9146C153.965 100.24 153.724 100.518 153.414 100.715C153.103 100.911 152.736 101.016 152.361 101.016Z" fill="#D4E1F4"/>
<path d="M56.9733 94.7266C56.4748 94.7266 55.9967 94.5414 55.6443 94.2117C55.2918 93.8821 55.0938 93.435 55.0938 92.9688V91.1231C55.0938 90.6569 55.2918 90.2097 55.6443 89.8801C55.9967 89.5504 56.4748 89.3652 56.9733 89.3652C57.4718 89.3652 57.9498 89.5504 58.3023 89.8801C58.6548 90.2097 58.8528 90.6569 58.8528 91.1231V92.9688C58.8528 93.435 58.6548 93.8821 58.3023 94.2117C57.9498 94.5414 57.4718 94.7266 56.9733 94.7266Z" fill="#F4F8FC"/>
<path d="M56.9733 116.699C56.4748 116.699 55.9967 116.514 55.6443 116.184C55.2918 115.855 55.0938 115.408 55.0938 114.941V97.9491C55.0938 97.4829 55.2918 97.0358 55.6443 96.7061C55.9967 96.3765 56.4748 96.1913 56.9733 96.1913C57.4718 96.1913 57.9498 96.3765 58.3023 96.7061C58.6548 97.0358 58.8528 97.4829 58.8528 97.9491V114.941C58.8528 115.408 58.6548 115.855 58.3023 116.184C57.9498 116.514 57.4718 116.699 56.9733 116.699Z" fill="#F4F8FC"/>
</svg>

<svg width="162" height="150" fill="none" xmlns="http://www.w3.org/2000/svg"><path d="M89.339 51.196c3.568 7.779 3.02 16.729-1.695 23.953l-.263.399-10.482-3.31v-6.212c3.09-2.638 5.22-6.114 6.093-9.94l1.692-7.38h1.071a4.177 4.177 0 002.168-.598l1.416 3.088zM87.293 31.01V41.5a4.228 4.228 0 00-1.538-.287h-1.071c.002-2.424-1.002-4.753-2.801-6.498-1.799-1.744-4.251-2.767-6.841-2.854l-.382-.011a22.453 22.453 0 01-6.713-1.348l-11.303-4.096-3.702 2.423a65.346 65.346 0 01-5.2 3.08 11.072 11.072 0 00-4.244 3.918 10.151 10.151 0 00-1.552 5.386h-1.068a4.22 4.22 0 00-1.676.343V31.01c0-5.964 2.533-11.684 7.042-15.901 4.508-4.217 10.624-6.587 17-6.588h.007c6.377 0 12.492 2.37 17.001 6.588 4.509 4.217 7.042 9.937 7.041 15.9zM49.712 66.012v6.225l-10.504 3.314c-.21-.29-.41-.58-.595-.87A23.917 23.917 0 0135.04 64.43a23.51 23.51 0 011.371-10.705l2.108-5.737c.685.468 1.511.72 2.36.718h1.067l1.692 7.38c.871 3.819 2.994 7.289 6.074 9.926z" fill="#6D7486"/><path d="M103.846 80.745l-26.918-8.508-27.254.03-26.911 8.475a22.74 22.74 0 00-5.475 2.557c-4.142 2.614-7.164 6.512-8.53 11.007-.348 1.186-.433 2.409-.747 3.66v23.03h84.93l.035.059 11.451-22.072 4.49-15.933a23.007 23.007 0 00-5.071-2.305z" fill="#5FA8ED"/><path d="M91.801 100.849L76.9 120.929V74.59l13.454 14.508-4.912 6.779 6.36 4.972z" fill="#4689D3"/><path d="M49.712 120.979V81.264c3.967 2.637 8.712 4.055 13.579 4.058 4.867.002 9.614-1.41 13.583-4.044l.026-.014v39.861H49.712v-.146z" fill="#5FCDA4"/><path d="M49.712 81.264v39.714l-14.94-20.129 6.36-4.972-4.912-6.78 13.492-14.47v6.637zm-25.261 19.631v20.23H8.124v-23.16c.11-1.237.34-2.463.692-3.661 1.346-4.492 4.35-8.392 8.477-11.01l.053.07c4.579 4.836 7.106 11.072 7.105 17.531z" fill="#4689D3"/><path d="M111.232 77.095l-3.286 8.449.066.023 28.732 26.871.028.071 9.041-3.076-34.581-32.338z" fill="#C6465C"/><path d="M136.744 112.438l.028.071-13.84 4.705a57.65 57.65 0 00-12.408 5.944 55.926 55.926 0 00-3.502 2.417l-13.035-12.19-.018-.015c3.83-4.469 6.851-9.494 8.943-14.877l5.034-12.95.066.024 28.732 26.871z" fill="#E75163"/><path d="M93.988 113.385l-.02-.015a53.726 53.726 0 01-4.112 4.295c-.832.78-1.3 1.838-1.3 2.94 0 1.102.468 2.159 1.3 2.94l6.287 5.88a4.615 4.615 0 003.143 1.216 4.617 4.617 0 003.144-1.216l4.592-3.85-13.034-12.19z" fill="#C6465C"/><path d="M134.651 87.53c1.642 1.533 2.576 3.606 2.605 5.775.029 2.169-.851 4.262-2.451 5.833l-12.568-11.751c1.681-1.496 3.919-2.317 6.238-2.29 2.32.026 4.536.9 6.176 2.433zm-27.629 38.045a57.966 57.966 0 013.502-2.417l.038.053 6.957 6.507a8.283 8.283 0 011.929 2.697 7.85 7.85 0 01.678 3.183 7.848 7.848 0 01-.678 3.182 8.287 8.287 0 01-1.929 2.698l-13.974-13.07a56.994 56.994 0 013.477-2.833z" fill="#6D7486"/><path d="M49.712 65.426v15.838c3.967 2.637 8.712 4.055 13.579 4.058 4.867.002 9.614-1.41 13.583-4.044l.026-.014V65.44l-27.188-.014z" fill="#EFC597"/><path d="M87.293 41.499a3.996 3.996 0 011.562 1.085c.417.477.703 1.042.83 1.646a3.51 3.51 0 01-.097 1.817 3.708 3.708 0 01-1 1.56c-.202.19-.425.358-.665.501a4.177 4.177 0 01-2.168.598h-1.071l-1.692 7.38c-.72 3.145-2.29 6.064-4.56 8.48-2.27 2.416-5.165 4.247-8.407 5.32a21.446 21.446 0 01-10.113.806c-3.39-.544-6.573-1.891-9.248-3.913a19.324 19.324 0 01-.952-.767c-3.08-2.637-5.203-6.107-6.074-9.926l-1.692-7.38h-1.068a4.205 4.205 0 01-2.227-.63 3.812 3.812 0 01-1.477-1.68 3.52 3.52 0 01-.229-2.167 3.678 3.678 0 011.098-1.919 3.912 3.912 0 011.16-.755 4.22 4.22 0 011.675-.343h1.068a10.151 10.151 0 011.552-5.386c1.018-1.635 2.483-2.987 4.244-3.919a65.346 65.346 0 005.2-3.079l3.702-2.423 11.303 4.096a22.454 22.454 0 006.713 1.348l.382.011c2.59.087 5.042 1.11 6.841 2.854 1.799 1.745 2.803 4.074 2.8 6.498h1.072c.528 0 1.051.097 1.538.287z" fill="#FFD8B7"/><path d="M60.062 67.17a19.324 19.324 0 01-.952-.768c-3.08-2.637-5.203-6.107-6.074-9.926l-.386-1.68a51.57 51.57 0 01-1.306-11.527v-1.667a10.15 10.15 0 011.551-5.386 11.1 11.1 0 014.244-3.92 65.406 65.406 0 005.2-3.078l.353-.231-6.048-2.191-3.702 2.423a65.346 65.346 0 01-5.2 3.079c-1.761.931-3.226 2.283-4.244 3.918a10.15 10.15 0 00-1.552 5.386h-1.068a4.233 4.233 0 00-1.676.342 3.92 3.92 0 00-1.159.756 3.678 3.678 0 00-1.095 1.919 3.522 3.522 0 00.228 2.165c.304.684.817 1.27 1.476 1.68a4.207 4.207 0 002.226.632h1.068l1.692 7.38c.871 3.819 2.995 7.288 6.074 9.925.31.267.627.522.952.768a20.755 20.755 0 008.224 3.72c3.01.636 6.136.616 9.136-.058a20.696 20.696 0 01-7.962-3.661z" fill="#EAC2A4"/><path d="M145.581 98.591c-.308 0-.611-.07-.882-.206a1.848 1.848 0 01-.676-.569 1.657 1.657 0 01-.185-1.64 10.43 10.43 0 00.62-6.366c-.465-2.133-1.591-4.09-3.237-5.63-1.645-1.54-3.739-2.592-6.02-3.027a12.636 12.636 0 00-6.806.58 1.997 1.997 0 01-1.448-.002 1.901 1.901 0 01-.612-.387 1.762 1.762 0 01-.405-.578 1.657 1.657 0 01.018-1.354 1.78 1.78 0 01.42-.568c.179-.16.39-.287.622-.372a16.64 16.64 0 018.963-.764c3.003.573 5.76 1.959 7.927 3.986 2.168 2.027 3.65 4.605 4.262 7.414a13.733 13.733 0 01-.816 8.382 1.792 1.792 0 01-.693.8 1.97 1.97 0 01-1.052.301z" fill="#D4E1F4"/><path d="M152.361 101.016c-.307 0-.61-.071-.882-.206a1.84 1.84 0 01-.675-.569 1.683 1.683 0 01-.311-.799 1.647 1.647 0 01.126-.842 16.761 16.761 0 00.996-10.23c-.747-3.427-2.556-6.573-5.201-9.046-2.644-2.474-6.009-4.165-9.673-4.864a20.307 20.307 0 00-10.938.932 1.997 1.997 0 01-1.448-.002 1.901 1.901 0 01-.612-.387 1.762 1.762 0 01-.405-.578 1.657 1.657 0 01.018-1.353c.099-.214.242-.407.42-.568.179-.162.391-.288.622-.373a24.31 24.31 0 0113.094-1.116c4.387.837 8.415 2.862 11.581 5.823 3.166 2.961 5.331 6.727 6.226 10.83a20.06 20.06 0 01-1.194 12.247c-.14.325-.381.603-.691.8a1.979 1.979 0 01-1.053.301z" fill="#D4E1F4"/><path d="M56.973 94.727c-.498 0-.976-.186-1.329-.515a1.702 1.702 0 01-.55-1.243v-1.846c0-.466.198-.913.55-1.243.353-.33.83-.515 1.33-.515.498 0 .976.185 1.328.515.353.33.55.777.55 1.243v1.846a1.7 1.7 0 01-.55 1.243c-.352.33-.83.515-1.329.515zm0 21.972c-.498 0-.976-.185-1.329-.515a1.7 1.7 0 01-.55-1.243V97.949c0-.466.198-.913.55-1.243.353-.33.83-.515 1.33-.515.498 0 .976.185 1.328.515.353.33.55.777.55 1.243v16.992a1.7 1.7 0 01-.55 1.243c-.352.33-.83.515-1.329.515z" fill="#F4F8FC"/></svg>
